assets/filezilla/original.svg

<svg viewBox="0 0 128 128" xmlns="http://www.w3.org/2000/svg" xmlns:xlink="http://www.w3.org/1999/xlink"><linearGradient id="a" gradientTransform="matrix(.73244 0 0 .73242 -73.663 -75.173)" gradientUnits="userSpaceOnUse" x1="187.947" x2="187.947" y1="123.859" y2="258.865"><stop offset="0" stop-color="#bf0000"/><stop offset="1" stop-color="#8f0000"/></linearGradient><path d="m0 4.286v5.65a4.29 4.29 0 0 1 4.286 4.286 4.29 4.29 0 0 1 -4.286 4.286v5.65a4.29 4.29 0 0 1 4.286 4.285 4.29 4.29 0 0 1 -4.286 4.286v5.65a4.291 4.291 0 0 1 4.286 4.288 4.291 4.291 0 0 1 -4.286 4.288v5.65a4.29 4.29 0 0 1 4.286 4.285 4.29 4.29 0 0 1 -4.286 4.286v5.65a4.29 4.29 0 0 1 4.286 4.285 4.29 4.29 0 0 1 -4.286 4.287v5.65a4.29 4.29 0 0 1 4.286 4.285 4.29 4.29 0 0 1 -4.286 4.286v5.65a4.29 4.29 0 0 1 4.286 4.285 4.29 4.29 0 0 1 -4.286 4.286v5.65a4.29 4.29 0 0 1 4.286 4.285 4.29 4.29 0 0 1 -4.286 4.287v5.653a4.31 4.31 0 0 1 3.03 1.255 4.315 4.315 0 0 1 1.257 3.03h5.65a4.29 4.29 0 0 1 4.286-4.285 4.29 4.29 0 0 1 4.284 4.285h5.651a4.29 4.29 0 0 1 4.286-4.285 4.29 4.29 0 0 1 4.285 4.285h5.65a4.29 4.29 0 0 1 4.286-4.285 4.29 4.29 0 0 1 4.286 4.285h5.65a4.29 4.29 0 0 1 4.286-4.285 4.29 4.29 0 0 1 4.286 4.285h5.65a4.29 4.29 0 0 1 4.286-4.285 4.29 4.29 0 0 1 4.286 4.285h5.65a4.29 4.29 0 0 1 4.286-4.285 4.29 4.29 0 0 1 4.285 4.285h5.651a4.29 4.29 0 0 1 4.286-4.285 4.29 4.29 0 0 1 4.285 4.285h5.651a4.29 4.29 0 0 1 4.286-4.285 4.29 4.29 0 0 1 4.285 4.285h5.654a4.31 4.31 0 0 1 1.256-3.03 4.31 4.31 0 0 1 3.03-1.255v-5.65a4.29 4.29 0 0 1 -4.286-4.287 4.29 4.29 0 0 1 4.286-4.284v-5.65a4.29 4.29 0 0 1 -4.286-4.287 4.29 4.29 0 0 1 4.286-4.285v-5.65a4.29 4.29 0 0 1 -4.286-4.286 4.29 4.29 0 0 1 4.286-4.286v-5.65a4.29 4.29 0 0 1 -4.286-4.287 4.29 4.29 0 0 1 4.286-4.283v-5.65a4.29 4.29 0 0 1 -4.286-4.287 4.29 4.29 0 0 1 4.286-4.285v-5.65a4.291 4.291 0 0 1 -4.286-4.288 4.291 4.291 0 0 1 4.286-4.287v-5.651a4.29 4.29 0 0 1 -4.286-4.286 4.29 4.29 0 0 1 4.286-4.286v-5.65a4.29 4.29 0 0 1 -4.286-4.286 4.29 4.29 0 0 1 4.286-4.284v-5.654a4.315 4.315 0 0 1 -3.03-1.254 4.316 4.316 0 0 1 -1.256-3.032h-5.651a4.29 4.29 0 0 1 -4.286 4.286 4.29 4.29 0 0 1 -4.285-4.286h-5.65a4.29 4.29 0 0 1 -4.286 4.286 4.29 4.29 0 0 1 -4.286-4.286h-5.65a4.29 4.29 0 0 1 -4.286 4.286 4.29 4.29 0 0 1 -4.286-4.286h-5.65a4.29 4.29 0 0 1 -4.286 4.286 4.29 4.29 0 0 1 -4.286-4.286h-5.65a4.29 4.29 0 0 1 -4.286 4.286 4.29 4.29 0 0 1 -4.285-4.286h-5.651a4.29 4.29 0 0 1 -4.286 4.286 4.29 4.29 0 0 1 -4.285-4.286h-5.65a4.29 4.29 0 0 1 -4.286 4.286 4.29 4.29 0 0 1 -4.287-4.286h-5.65a4.29 4.29 0 0 1 -4.286 4.286 4.29 4.29 0 0 1 -4.285-4.286h-5.653a4.321 4.321 0 0 1 -1.256 3.032 4.32 4.32 0 0 1 -3.03 1.254z" fill="url(#a)"/><path d="m109.04 51.217h-63.873l3.334-15.596h38.93l3.569-16.785h-55.953l-17.62 83.096h16.906l7.737-36.31h40.549l-35.234 34.88 6.19 10.952c2.857-1.904 7.5-2.143 10.714-2.143 5.716 0 11.31 1.906 17.142 1.906 5.348 0 10.822-.357 19.752-4.643l3.12-14.643c-6.072 2.5-15.057 4.881-22.872 4.881-3.212 0-6.189-.714-9.284-1.19l34.154-33.214z" fill="#fff"/></svg>

<svg xmlns="http://www.w3.org/2000/svg" viewBox="0 0 128 128"><linearGradient id="a" x1="187.947" x2="187.947" y1="123.859" y2="258.865" gradientTransform="matrix(.73244 0 0 .73242 -73.663 -75.173)" gradientUnits="userSpaceOnUse"><stop offset="0" stop-color="#bf0000"/><stop offset="1" stop-color="#8f0000"/></linearGradient><path fill="url(#a)" d="M0 4.286v5.65a4.29 4.29 0 0 1 4.286 4.286A4.29 4.29 0 0 1 0 18.508v5.65a4.29 4.29 0 0 1 4.286 4.285A4.29 4.29 0 0 1 0 32.729v5.65a4.29 4.29 0 0 1 4.286 4.288A4.29 4.29 0 0 1 0 46.955v5.65a4.29 4.29 0 0 1 4.286 4.285A4.29 4.29 0 0 1 0 61.176v5.65a4.29 4.29 0 0 1 4.286 4.285A4.29 4.29 0 0 1 0 75.398v5.65a4.29 4.29 0 0 1 4.286 4.285A4.29 4.29 0 0 1 0 89.619v5.65a4.29 4.29 0 0 1 4.286 4.285A4.29 4.29 0 0 1 0 103.84v5.65a4.29 4.29 0 0 1 4.286 4.285A4.29 4.29 0 0 1 0 118.062v5.653a4.3 4.3 0 0 1 3.03 1.255A4.32 4.32 0 0 1 4.287 128h5.65a4.29 4.29 0 0 1 4.286-4.285A4.29 4.29 0 0 1 18.507 128h5.651a4.29 4.29 0 0 1 4.286-4.285A4.29 4.29 0 0 1 32.729 128h5.65a4.29 4.29 0 0 1 4.286-4.285A4.29 4.29 0 0 1 46.951 128h5.65a4.29 4.29 0 0 1 4.286-4.285A4.29 4.29 0 0 1 61.173 128h5.65a4.29 4.29 0 0 1 4.286-4.285A4.29 4.29 0 0 1 75.395 128h5.65a4.29 4.29 0 0 1 4.286-4.285A4.29 4.29 0 0 1 89.616 128h5.651a4.29 4.29 0 0 1 4.286-4.285 4.29 4.29 0 0 1 4.285 4.285h5.651a4.29 4.29 0 0 1 4.286-4.285A4.29 4.29 0 0 1 118.06 128h5.654a4.3 4.3 0 0 1 1.256-3.03 4.3 4.3 0 0 1 3.03-1.255v-5.65a4.29 4.29 0 0 1-4.286-4.287 4.29 4.29 0 0 1 4.286-4.284v-5.65a4.29 4.29 0 0 1-4.286-4.287A4.29 4.29 0 0 1 128 95.272v-5.65a4.29 4.29 0 0 1-4.286-4.286A4.29 4.29 0 0 1 128 81.05V75.4a4.29 4.29 0 0 1-4.286-4.287A4.29 4.29 0 0 1 128 66.83v-5.65a4.29 4.29 0 0 1-4.286-4.287A4.29 4.29 0 0 1 128 52.608v-5.65a4.29 4.29 0 0 1-4.286-4.288A4.29 4.29 0 0 1 128 38.383v-5.651a4.29 4.29 0 0 1-4.286-4.286A4.29 4.29 0 0 1 128 24.16v-5.65a4.29 4.29 0 0 1-4.286-4.286A4.29 4.29 0 0 1 128 9.94V4.286a4.32 4.32 0 0 1-3.03-1.254A4.32 4.32 0 0 1 123.714 0h-5.651a4.29 4.29 0 0 1-4.286 4.286A4.29 4.29 0 0 1 109.492 0h-5.65a4.29 4.29 0 0 1-4.286 4.286A4.29 4.29 0 0 1 95.27 0h-5.65a4.29 4.29 0 0 1-4.286 4.286A4.29 4.29 0 0 1 81.048 0h-5.65a4.29 4.29 0 0 1-4.286 4.286A4.29 4.29 0 0 1 66.826 0h-5.65a4.29 4.29 0 0 1-4.286 4.286A4.29 4.29 0 0 1 52.605 0h-5.651a4.29 4.29 0 0 1-4.286 4.286A4.29 4.29 0 0 1 38.383 0h-5.65a4.29 4.29 0 0 1-4.286 4.286A4.29 4.29 0 0 1 24.16 0h-5.65a4.29 4.29 0 0 1-4.286 4.286A4.29 4.29 0 0 1 9.939 0H4.286A4.32 4.32 0 0 1 3.03 3.032 4.32 4.32 0 0 1 0 4.286"/><path fill="#fff" d="M109.04 51.217H45.167l3.334-15.596h38.93L91 18.836H35.047l-17.62 83.096h16.906l7.737-36.31h40.549l-35.234 34.88 6.19 10.952c2.857-1.904 7.5-2.143 10.714-2.143 5.716 0 11.31 1.906 17.142 1.906 5.348 0 10.822-.357 19.752-4.643l3.12-14.643c-6.072 2.5-15.057 4.881-22.872 4.881-3.212 0-6.189-.714-9.284-1.19l34.154-33.214z"/></svg>
